X:161
T: Das Lieben bringt groá Freud (2-54), S. 144
N: K1136
O: Luxemburg
S: KINTZELE, Guillaume: An der Ucht, Bd. 2, Luxemburg 1927]
N: in der Quelle mit einer 2. Stimme versehen
R: Liebe, Treue]
M: 4/4
L: 1/8
K: F
C2 | F3GA2Bd | c4z2
A2 | c2c2B2cB | A4z2
FA | c2c2c2dc | cBBAB2
cB | A2A2AcBA | GFEFG2
FG | A4z2Bd | c4z2
A2 | c2c2B2cB | A4z2

